X:1
T:Patient Is The Night
T:Patient Is The Night
T:Composed by The Blasting Company for 'Over The Garden Wall' Performed by Tom Brier 
T:as performed by Tom Brier
T:https://musescore.com/user/19465036/scores/6327000 Transcribed from: https://www.youtube.com/watch?v=vZ_n5fAltX8 
%%score { ( 1 2 5 ) | ( 3 4 ) }
L:1/8
Q:1/4=90
M:4/4
K:F
V:1 treble nm="Piano" snm="Pno."
V:2 treble 
V:5 treble 
V:3 bass 
V:4 bass 
V:1
"^Swing 8ths."!mf! !fermata!z2{Ac} dc f [FAcd]3 | z2!>(! [GBdf]d [GB_df] [GBde]3!>)! | %2
[Q:1/4=110]"^poco rit." [Acg]f[Q:1/4=100]ef[Q:1/4=95] [_Ad]f[Q:1/4=90]e[Q:1/4=90]d | %3
[Q:1/4=93] B4[Q:1/4=85][Q:1/4=75] !arpeggio![CEc]4 || %4
[Q:1/4=96][Q:1/4=96]"^Slightly faster."!mf! z (F,CD EFGA | %5
 [DFc] [FA]3- [FA]4)[Q:1/4=115][Q:1/4=100] |!>(! z (B A2- A!>)! [DF]2 G | %7
 [=B,FA] [B,FA]3{GA} G [B,F]3) | [=B,E]EEE [^CG]4 | [A,CDF]AFE [^G,D]4 | %10
 z2 (3:2:2C C2!>(! C2 (3:2:2C C2 | C8!>)! | %12
[Q:1/4=60] !arpeggio!!fermata![A,CD]2"^Straight" (CD EFG[Q:1/4=105]A[Q:1/4=130] | %13
"^SwON" [Fc]4) [DA]4 | z2[Q:1/4=120] (5:4:5z/ (B/c/B/A/[Q:1/4=105] (3GFG (3FDB, | %15
 [=B,DFA]3 [B,G]- [B,G]3) G, | [=B,DE]E (3EE[^CG]- [CG]3 E | [A,CDF]A (3FED- D4 | %18
"^poco rit."!>(! z[Q:1/4=90] [_A,CD]2 C/C/ [A,C]2- (3[A,C]CC!>)! | %19
 z2[Q:1/4=96]!8va(! [ae'a']2 [gd'g']2 [e=be']2!8va)! || %20
[Q:1/4=86]"^Slightly slower."!mf! z (Fcd efga | %21
{dab=b} c' [dfa]2) (e'[Q:1/4=92]{d'e'} d'/c'/a/f/ d/c/A/F/) | %22
[Q:1/4=94]!<(! z [DAB]- (3:2:2[DAB] [DFG]2- [DFG][Ff]- (3([Ff][Gg][^G^g]!<)! | %23
!>(! [Adfa] [Adfa]3{ga} g [F=Bdf]2) [EBe]-!>)! | %24
 [EBe][E=Be] (3[EBe][EBe][G^cg]- [Gcg] [Ece]2 [F=cf]- | %25
"^Straight" [Fcf][Aea][Fcf][E=Be]"^SwON" [D^Gd] [EGe]2 [C=GAc]- | [CGAc]!>!C (3CCC (3CCC C/C/C/C/ | %27
!<(! (5:4:5C/C/C/C/C/ (6:4:6C/C/C/C/C/C/{=B} c C3!<)! | %28
!f! z ([CFAc]- (3:2:2[CFAc] [Dd]2 [Ee][Ff] (3[Gg][Aa][cfc']- | %29
[M:23/16] [cfc']3 [Afa]8)[Q:1/2=113][Q:1/4=120] x/[Q:1/2=94] | %30
[M:4/4][Q:1/4=96] z ([Bdb]- [Bdb]/[cc']/[Bb]/[Aa]/ (3[Gg]2 [Ff]2 [Gg]2 | %31
!>(! [Adfa]3 [G=Bdg]- [GBdg]3) C!>)! |[Q:1/4=100]!mf! EE (3EE[^CG]- [CG]3 E | %33
 [A,CDF]A F(3E/F/E/ D3 z |[Q:1/4=90]"^poco rit." z [A,C]2 [_A,C] CC C/D/C/=B,/ | %35
 C2 z C[Q:1/4=95]!<(! (3=B,2 [B,^D^FA=B]2 [B^d^fa=b]2!<)! || %36
[K:G]"^Straight"!f!!8va(! ([bb'](3[aa']/b'/a'/ [gg'][ff']!8va)! [ee'][^d^d'][ff'][ee'] | %37
"^SwON" [dd'][cc'] (3[Bb][cc'][Acea]-) (3[Acea]2 [Gg]2 [Aa]2 | %38
!>(! (3([Begb]2 [Begb]2 [Begb]2 [B_egb] [Bdgb]2 [B^c=egb]-!>)! | %39
 [Bcegb]2) (G,/A,/^C/E/ G/A/^c/e/ !arpeggio![ga^c'e']2) | %40
!f! z ([Ad=fa]3"^Straight"!>(!{gagf} [=Ff][Ee][Dd][Cc]!>)! | %41
"^SwON" [D_Ad][DAd] (3[DAd][DAd][=FB=f]-) [FBf]2- (3[FBf]([Ee][Ff] | %42
!>(! [GBeg][GBeg] (3[GBeg][GBeg][G^cea]-!>)! [Gcea] [Gce]2) c | %43
"^Straight"[Q:1/4=90] [Ad=f]dcA"^SwON" [=Fc]2 [E_B]2 || %44
[K:F][Q:1/4=93]!mf! [CFA]2 z/ (F/c/d/ e/f/g/a/ b/c'/d'/e'/ | %45
 f'(3e'/f'/e'/ d'/c'/a/f/{dc} A- [Acdf]3) | (G/B/d/f/ a(3g/a/g/"^Straight"!<(! fdBA!<)! | %47
 G)!sfz![=B,E]_ED A,^A,B,G, |"^SwON" ([=B,E]2 G/=B/e/g/ [A^ca]4) | %49
 (d/f/a/c'/ e'/f'/e'/d'/ e'3) (3(d'/e'/d'/ | c'a-!<(! (3ac'[ea] (3c'[e^g]c' (3[e=g]c'[eg]!<)! | %51
!>(! (3[e^f]c'f (3ec'f (3dc'^g c-[c=fa])!>)! ||!mp! z2 z/ (c'/d'/c'/ a/c'/f/a/ d/f/c/d/ | %53
 A/c/F/A/ D/F/C/D/ A,/C/D/F/ A[Dc] |!<(! [GB]4)"^Straight" (!arpeggio![ABda][GBdg][FBdf][DBd]!<)! | %55
"^SwON"!f! [F=Bf]2)!>(! (3=B,DF [B,DFA] [B,DFG]3!>)! | %56
!mf! (3:2:2!arpeggio![EG=Be]2 e (3^de[^cg]- (3:2:2[cg]2 g (3egA | %57
"^Straight 8ths." [df]a d/f/a/c'/ (3d'2 [fc']2 d'2 | ([f_ac'e'](3d'/e'/d'/ c'/a/f/a/ gf_dc | %59
[Q:1/4=60]!<(! [EGce]2)[Q:1/4=90] [EAce][CE_A] [CEG]E (3C=B,_B,!<)! | %60
[Q:1/4=96]"^A bit faster."!ff! A,4!8va(! (!arpeggio![ac'a'][gg'][ff'][ee'] | %61
!>(! (3[ff']2 [ee']2 [dd']2!8va)!!>)! (3:2:2[Aa]2 [cc']4) | %62
 ([Bdb]2-!<(! (3[Bdb][Gdg][Aa][Q:1/4=100]!8va(! [Bb][dd'][ff'][gg']!<)! | %63
[Q:1/4=100] !arpeggio![a=bd'a']2)!8va)! [=B,DFA]2!8va(! [gbd'f'g']2!8va)! [B,DFA]2 | %64
"^Swing 8ths."[Q:1/4=96] [G,=B,E]2!>(! (3([ee'][g=b][ee'] (3[^cg^c']2 [gc'g']2 [ff']2!>)! | %65
 (3[eae']2 [ff']2 [dd']2 (3[e^ge']2 [dgd']2 [=B=b]2 | %66
 [cac']2)!>(! (5:4:5z/ (c/e/a/c'/ [e_a]2) (c/e/a/c'/!>)! | %67
!<(! g2) (c/e/g/c'/)!<)! z/4 (c/4e/4a/4!8va(!c'/4e'/4g'/4a'/4 c''-[c'd'f'a'c'']- || %68
!mf! [c'd'f'a'c'']3) (3(a'/c''/a'/ (3f'/d'/c'/!8va)!(3a/f/d/ (3c/A/F/(3:2:2D/-)[DFAd]- | %69
"^Straight" ([DFAd]!<(![FAe][FAe][FAf] [Aa][Gg][Ff][Dd]!<)! | %70
"^SwON" [GBdeg]2) (z/ G/[Bdg]/G/) z/ (G/[Bdg]/G/) z/ (G/[Bdg]/G/) | %71
!>(! z/ (F/[=Bd]/F/) z/ (D/[FB]/D/) z/ =B,/G/B,/ (3FD^D!>)! | %72
 ([G,=B,E]2 G,/B,/D/E/ ^C[CGB] (3A_AG |"^Straight" [DF][FA][Fd]e [FAcdf]4) | %74
 ([_Acg]/f/d/c/ AF AG (5:4:5F/G/F/D/F/ |"^SwON" E2-) E/G,/C/E/ [^F,=B,^D] [B,D^FA=B]2 (3B,/^C/D/ || %76
[K:G]!mf! E2 (z/ G/B/e/) (z/ G/B/f/) (z/ G/B/g/) | %77
(x/G/A/^c/ e/g/a/^c'/"^Straight"!8va(! e'gg'e')!8va)! |"^SwON" z ([Be]- [Be]/G/B/e/ BG (3BeB | %79
!<(! [EG]2) (3E_ED!<)! ^C- [C=EGA]2 [CE] | %80
 [D=F]2!>(! (5:4:5z/ (D/F/A/d/) (z/ F/A/d/) (z/ F/A/d/!>)! | %81
 [B=f]2) z/ (B/d/f/!<(! a[GBdfg]- (3[GBdfg][Aa][G-g]!<)! | %82
 [Gce]2) E/G/c/e/ (3[E^A^c]2 [EAce]2 [EAc]2 | [=FAd]F (3AdF-!>(! [FBdg]2 [G_Beg][^G^g]!>)! || %84
[K:F]"^Straight" ([Acfa]3 [cfac']!8va(! [dfad'][ff'][gg'][aa'] | %85
"^SwON" [d'a'd''] [ad'f'a']2-) [ad'f'a']/!8va)!F/ ([Adf]/F/)([A_df]/F/) ([Acf]/F/)([Af]/F/) | %86
 [GB]2 (7:4:7(F/G/B/d/f/g/b/ d'[fbf'] (3:2:2[ebe'] [dd']2) | [Adfa] [Adfa]3{gag} [Gd] [Fdf]3 | %88
!mf! !arpeggio![G=Bde][GBde]- [GBde]/d/B/G/- [GA^ce]4 | (3[FAcd]2 [FAcd]2 [FAcd]2 [E^G=Bd]4 | %90
 z2 z/ E/A/c/ z/ E/_A/c/ z/ E/G/c/ | %91
 z/ E/^F/c/ (11:4:11(E/F/A/c/!8va(!e/^f/a/c'/e'/^f'/a'/!>(! c'' [e'f'a']3)!>)! | %92
 ([e'g'=b'](3g'/b'/g'/ e'/d'/=b/g/ e' [eg^c']3)!8va)! | (!arpeggio![fad'f'][fe'][fd']a f d3) | %94
!<(! [GB]2"^Straight" ([GBdg][Aa] [Bb][cc'][dd'][ff']!<)! | %95
"^SwON"!>(! (3[af'a']2 [f=bf']2 [dd']2 (3:2:2[=Bb]2 [dd']4)!>)! | %96
!mp! (!arpeggio![ege']=bge'"^Straight" [e^c']a_ag | fd'"^SwON" (3afe d A3) | %98
"^Straight""^rall."[Q:1/4=92] (!arpeggio![_Acf]ffg{fg} [Af]edf | %99
"^SwON"[Q:1/4=86] [Ge] [Ec]3-"^SwOFF"[Q:1/4=82] [Ec]F G2) |"^SwON" (A2 z/ A/c/d/ [Ff][Aa]gf | %101
 [Ge]G (3=BgG- [G^ca]4) |"^Straight"[Q:1/4=78] ([c_a]c'ba[Q:1/4=66]!>(!{ga} gfdf!>)! | %103
!p![Q:1/4=74] (3[Ge]2) [ge']2!8va(! [g'e'']2!8va)![Q:1/4=70] [Ec]2 [Ge]2 | [cg]6 z2 |] %105
V:2
 !arpeggio![F,A,CD]8 | [G,B,DF]8 | x8 | z2 [FG]2 x4 || x8 | x8 | x D3- D x3 | x8 | x8 | x8 | %10
 x2 A,2 _A,3 x | [G,A,]2 [G,A,]2 [_G,A,]2 [G,A,]2 | x8 | x8 | x8 | x8 | x8 | x8 | x8 | %19
 x2!8va(! A2 G2 E2!8va)! || x8 | x8 | x8 | x8 | x8 | x8 | x8 | x8 | x8 | %29
[M:23/16] x6 D/E/F/A/c/ d/f/a/c'/ z |[M:4/4] x8 | x8 | x8 | x8 | x8 | x8 || %36
[K:G]!8va(! x4!8va)! x4 | x8 | x8 | x8 | x8 | x8 | x8 | x8 ||[K:F] x8 | x8 | x8 | x8 | x8 | x8 | %50
 x8 | x8 || x8 | x8 | x8 | x8 | x8 | x8 | !arpeggio![F_Acd]2 x6 | x8 | x4!8va(! x4 | x4!8va)! x4 | %62
 x4!8va(! x4 | x2!8va)! x2!8va(! x2!8va)! x2 | x8 | x8 | x8 | x5!8va(! x3 || x5!8va)! x3 | x8 | %70
 x2 G2 ^F2 =F2 | x8 | x8 | x8 | x8 | x8 ||[K:G] x8 | x4!8va(! x4!8va)! | x8 | x2 [B,G]2 x4 | x8 | %81
 x8 | x8 | x8 ||[K:F] x4!8va(! x4 | x7/2!8va)! x9/2 | x8 | x8 | x8 | x8 | x8 | %91
 x41/15!8va(! x317/60 | x8!8va)! | x8 | x8 | x8 | x8 | x8 | x8 | x8 | x8 | x8 | x8 | %103
 (3C2 c2!8va(! c'2!8va)! x4 | x8 |] %105
V:3
!8vb(!!ped! x2!8vb)![I:staff -1] DC F D3!ped-up! | %1
!8vb(!!ped![I:staff +1] z2!8vb)! [G,B,DF]2 [G,B,_DF] [G,B,D]3!ped-up! | %2
!ped! !arpeggio![F,CF]4 !arpeggio![_A,_CF]4!ped-up! |!ped! [D,B,]2 F,2 [C,E,B,]2 C,,2!ped-up! || %4
!8vb(!!ped! F,,,3!8vb)! C,- [C,F,A,]2 A,,D,,-!ped-up! | %5
!ped! [D,,F,]3!<(! D, (3CA,F, D,D,,!ped-up!!<)! |!ped! z2 [D,B,] z [D,B,]2 [D,B,]2!ped-up! | %7
!ped! [G,,D,F,]4 [G,,D,F,]2 [G,,,G,,]2!ped-up! | %8
!ped! [=B,,E,G,]4!ped-up!!ped! !arpeggio![A,,E,G,]2 A,,,2!ped-up! | %9
!ped! [D,,A,,F,]4!ped-up!!ped! [E,,=B,,E,]2!8vb(! E,,,2!ped-up!!8vb)! | %10
!ped! [A,,E,A,]4 !arpeggio![_A,,E,]4!ped-up! |!ped! E,2 E,2 E,2 E,2!ped-up! | %12
!ped! [F,,C,]C,-!ped! [C,A,]4 A,2!ped-up! | %13
!ped! !arpeggio![D,,F,]2 [D,F,A,C]4 [D,F,A,C]G,,-!ped-up! |!ped! [G,,D,B,]2 [D,G,B,]4 B,2!ped-up! | %15
!ped! !arpeggio![G,,F,]2 [G,,D,F,]4!8vb(! G,,,2!ped-up!!8vb)! | %16
!ped! [E,,=B,,E,]4!ped-up!!ped! A,,2 A,,,2!ped-up! | %17
!ped! [D,,F,]3 (D, (3A,F,D, (3A,,F,,E,,!ped-up! |!ped! [F,,C,F,]4) [F,,C,F,]4!ped-up! | %19
!ped!{C,,-} [C,,G,,E,]8!ped-up! ||!ped! [F,,C,A,]2 [F,A,CD]2!8vb(! F,,,2!8vb)! [F,A,CD]2!ped-up! | %21
!ped! [D,,A,,F,]2 [F,A,C]2!ped-up!!ped! [F,,A,]2 [F,A,CD]2!ped-up! | %22
!ped!{G,,-} [G,,D,B,]2 [G,B,D]G,,-!ped-up!!ped! [G,,D,B,]2 [G,B,D]2!ped-up! | %23
!ped! [G,,F,]2 [G,F]2 [G,=B,D]2!8vb(! G,,,2!ped-up!!8vb)! | %24
!ped! [E,,=B,,G,]2 [E,G,=B,D]2!ped-up!!ped! [A,,E,G,]2 [G,A,^C]D,,-!ped-up! | %25
!ped! [D,,A,,F,]2 [F,A,CD]E,,-!ped-up!!ped! [E,,=B,,^G,]2 [E,G,=B,]A,,-!ped-up! | %26
!ped! [A,,E,A,]2 [E,A,]2 _A,2 G,2!ped-up! |!ped! _G,2 F,2 E,2 D,_D,!ped-up! | %28
!ped! [F,,C,]2 [C,F,A,]C,- [C,,C,]2 [F,A,C]2!ped-up! | %29
[M:23/16]!ped! [D,,A,,F,]2 [D,F,A,C]2 (D,/F,/A,/C/) x4 x/ G,,-!ped-up! | %30
[M:4/4]!ped! [G,,D,B,]2 [G,B,D]2!8vb(! G,,,2!8vb)! [G,B,D]2!ped-up! | %31
!ped! [G,,,G,,]2 [G,F]2 [=B,D]2 G,2!ped-up! |!ped! [E,,=B,,]4!ped-up!!ped! [A,,E,]2 A,,,2!ped-up! | %33
!ped! [D,,F,]4 (3F,E,D, A,,2!ped-up! |!ped! F,,2 [C,F,]2!8vb(! F,,,2!8vb)! F,,2!ped-up! | %35
!ped! [C,,G,,E,]2 [C,E,G,]2!ped-up!!ped!{=B,,,-} [B,,,=B,,]2 [B,,^D,^F,A,]E,,-!ped-up! || %36
[K:G]!ped! [E,,B,,G,]2 [G,B,E]2!ped-up!!ped!{G,,-} [G,,G,]2 [G,B,E]2!ped-up! | %37
!ped! [A,,E,C]2 [E,A,C]2 [A,CE]2!ped-up!!ped! B,,2!ped-up! | %38
!ped!{E,,-} [E,,B,,G,]2 [G,B,E]2!ped-up!!ped! [E,,B,,G,]2 [G,B,E]2!ped-up! | %39
!ped! [E,,^C,G,]2 (A,,/C,/E,/G,/ (3A,^C[I:staff -1]E G)[I:staff +1]D,,-!ped-up! | %40
!ped! [D,,A,,=F,]2 [F,A,D]2!ped!!ped-up!!ped! [=F,,F,]2 [F,A,D]2!ped-up! | %41
!ped! [=F,,_A,]2 [=F,A,CD]2!ped-up!!ped! [G,,B,]2 [D,F,G,B,]2!ped-up! | %42
!ped! [E,,B,,]2 [G,B,E]2!ped-up!!ped! A,,,2 [G,A,^CE]2!ped-up! | %43
!ped! [D,,=F,]2 F,2!ped-up!!ped! [G,,D,]2!ped-up!!ped! [C,_B,]=F,,-!ped-up! || %44
[K:F]!ped! [F,,C,A,]2 [F,A,CD]2 C,,2 [A,CF]2!ped-up! | %45
!ped!{D,,-} [D,,A,,F,]2 [F,A,CD]2 F,,2 [F,A,CD]G,,-!ped-up! | %46
!ped! [G,,D,B,]2 [G,B,D]2!ped!!8vb(! G,,,2!8vb)! [G,B,D]2!ped-up! | %47
 z!ped! [G,,F,]2 [G,,F,]!ped-up!!ped! [G,,D,]2!8vb(! G,,,2!ped-up!!8vb)! | %48
!ped! [E,,=B,,]2 [=B,DE]2!ped-up!!ped! [A,,E,]2 [G,A,^CE]D,,-!ped-up! | %49
!ped! [D,,A,,F,]2 [D,F,A,C]2!ped-up!!ped!{E,,-} [E,,=B,,]2 [E,^G,=B,D]2!ped-up! | %50
!ped! [A,,E,C]2 [CE]2 [CE]2 [CE]2!ped-up! |!ped! [CE]4 D,2 C,2!ped-up! || %52
!ped! [F,,C,A,]2 [A,CDF]2 C,,2 [A,CDF]2!ped-up! |!ped! [D,,F,]2 A,2 D,,2 [A,,F,]G,,-!ped-up! | %54
!ped! [G,,D,B,]2 [G,B,D]2!ped! [G,,,G,,]2 [G,B,D]2!ped-up! | %55
!ped! [G,,,G,,]2 [G,,D,F,][G,,D,F,] [G,,D,F,]2 [G,,D,]2!ped-up! | %56
!ped! !arpeggio![E,G,=B,]4 [^CE]4!ped-up! |!ped![I:staff -1] [DF]8!ped-up! | %58
!ped![I:staff +1] z8!ped-up! |!ped! [C,G,]2!ped-up!!ped! [C,G,A,]_A, G,E, C,2!ped-up! | %60
!ped! [F,,,F,,]2 [F,A,CD]2 [A,CDF]4!ped-up! |!ped! [F,,,F,,]2 [D,F,A,]2 [F,A,D]2 C G,,,-!ped-up! | %62
!ped! [G,,,G,,]2 [G,B,D]2 [G,B,D]2 [B,DF]2!ped-up! | %63
!ped! !arpeggio![=B,DFG]2 [G,,,G,,]2 [G,B,F]2 [G,,,G,,]!8vb(!E,,,-!ped-up! | %64
!ped! [E,,,E,,]2!8vb)! [G,=B,E]2!ped-up!!ped! A,,,2 [G,A,^CE]2!ped-up! | %65
!ped!{D,,-} [D,,A,,F,]2 [F,A,D]E,,-!ped-up!!ped! [E,,=B,,^G,]2 [E,G,=B,D]2!ped-up! | %66
!ped! [A,,E,C]2 [CE]2 [CE]4!ped-up! | [CE]4 !arpeggio![CE]4 || %68
!ped! [F,,C,A,]2 [A,CDF]2!8vb(! F,,,2!8vb)! [A,CDF]2!ped-up! | %69
!ped!{D,,-} [D,,A,,F,]2 [D,F,A,C]2!ped-up!!ped!{D,,-} [D,,A,,F,]2 [F,A,CD]2!ped-up! | %70
!ped!{G,,-} [G,,D,B,]2 [G,B,D]2 [G,B,D]2 [G,B,D]2!ped-up! | %71
!ped! [G,=B,D]2 [D,B,]2 [G,,F,]2!8vb(! G,,,2!ped-up!!8vb)! | %72
!ped! [E,,=B,,]2 E,2!ped-up!!ped! [A,,E,]2 G,2!ped-up! | %73
!ped! [D,,F,]2 [F,A,D]2!ped-up!!ped! [D,,F,]2 [F,A,CD]2!ped-up! | %74
!ped!{F,,-} [F,,C,_A,]2 [A,CD]6!ped-up! | %75
!ped! C,,2- [C,,G,,E,]2!ped-up!!ped! [=B,,,^F,,]2 [=B,,^D,^F,A,]2!ped-up! || %76
[K:G]!ped! [E,,B,,]2[I:staff -1] E2 _E2 D2!ped-up! | ^C8!ped!!ped-up! |!ped! E4 D2 ^C2!ped-up! | %79
!ped![I:staff +1]{E,-} [E,B,]4!ped-up!!ped! [A,,E,G,]2 [E,G,]2!ped-up! | %80
!ped!{D,,-} [D,,A,,=F,]2 [D,F,A,]2[I:staff -1] ^C2 =C2!ped-up! | %81
!ped! B,2[I:staff +1] [G,=F]2 [B,D]2!8vb(! G,,,2!ped-up!!8vb)! | %82
!ped! E,2 E,2!ped-up!!ped!{^C,,-} [C,,E,]2 [E,G,^A,^C]2!ped-up! | %83
!ped! [D,,=F,]2 [F,A,D]2!ped-up!!ped! [G,,B,]2!ped-up!!ped! [C,,E,]2!ped-up! || %84
[K:F]!ped!!8vb(!!ped! F,,,2!8vb)! [A,CDF]2 F,,2 [A,CDF]2!ped-up! | %85
!ped!{D,,-} [D,,F,]2 [F,A,D]2 (D^C=C=B,!ped-up! | %86
!ped! [G,,D,]2) [F,G,B,D]2!8vb(! G,,,2!8vb)! [G,B,DF]G,,-!ped-up! | %87
!ped! [G,,F,]2 [G,=B,DF]2!8vb(! G,,,2!8vb)! [G,B,D]2 |!ped-up! %88
!ped! [G,=B,E]2 E,2!8vb(! (A,,/_A,,/G,,/E,,/ ^C,,A,,,)!ped-up!!8vb)! | %89
!ped! D,,2 [F,A,D]2!ped-up!!8vb(! (E,,/_E,,/D,,/=B,,,/ ^G,,,E,,,) | %90
!ped! A,,,2!8vb)! A,2!ped-up! _A,2 G,2 | ^F,2- [D,F,A,C]2- [D,F,A,C]2 [D,A,C]2 | %92
 [E,=B,D]4 [A,,E,G,]3 D,- | [D,A,]6 [F,A,]2 |!ped! x2!ped![I:staff -1] G2 _G2 F2!ped-up! |!ped-up! %95
!ped![I:staff +1] [G,=B,D]6 D2!ped-up! | %96
!ped! [E,=B,]4!ped!!ped-up!!ped! !arpeggio![A,EG]4!ped-up! | %97
!ped![I:staff -1] !arpeggio![DA]8!ped-up! |!ped![I:staff +1] [F,F]8!ped-up! | %99
!ped! C,2- [C,G,]2 D,2 E,2!ped-up! |!ped! [F,C]2 [A,CF]2!ped-up!!ped!{D,-} [D,A,]2 F2!ped-up! | %101
!ped! [E,=B,]2 E2!ped-up!!ped! [A,E]4!ped-up! |!ped! !arpeggio![F,_A]8!ped-up! | %103
!ped! x4 C,2- [C,E]2!ped-up! |!8vb(! C,,,6!8vb)! .C,, z |] %105
V:4
!8vb(! [F,,,F,,]8!8vb)! |!8vb(!{G,,,-} [G,,,G,,]8!8vb)! | x8 | x8 ||!8vb(! x3!8vb)! x5 | x8 | %6
 G,,3 G,,- G,,4 | x8 | x8 | x6!8vb(! x2!8vb)! | x8 | G,,4 _G,,4 | x8 | x8 | x8 | %15
 x6!8vb(! x2!8vb)! | x8 | x8 | x8 | x8 || x4!8vb(! x2!8vb)! x2 | x8 | x8 | x6!8vb(! x2!8vb)! | x8 | %25
 x8 | x8 | x8 | x8 |[M:23/16] x23/2 |[M:4/4] x4!8vb(! x2!8vb)! x2 | x8 | x8 | x8 | %34
 x4!8vb(! x2!8vb)! x2 | x8 ||[K:G] x8 | x8 | x8 | x8 | x8 | x8 | x8 | x8 ||[K:F] x8 | x8 | %46
 x4!8vb(! x2!8vb)! x2 | x6!8vb(! x2!8vb)! | x8 | x8 | x2 A,2 _A,2 G,2 | ^F,2 E,2 x4 || x8 | x8 | %54
 x8 | x8 | x8 | x8 | x8 | x8 | x8 | x8 | x8 | x7!8vb(! x | x2!8vb)! x6 | x8 | x2 A,2 _A,4 | %67
 G,4 ^F,4 || x4!8vb(! x2!8vb)! x2 | x8 | x8 | x6!8vb(! x2!8vb)! | x8 | x8 | x8 | x8 ||[K:G] x8 | %77
 x8 | x8 | x8 | x8 | x6!8vb(! x2!8vb)! | C,,4 x4 | x8 ||[K:F]!8vb(! x2!8vb)! x6 | x8 | %86
 x4!8vb(! x2!8vb)! x2 | x4!8vb(! x2!8vb)! x2 | x4!8vb(! x4!8vb)! | x4!8vb(! x4 | x2!8vb)! x6 | %91
 x481/60 | x8 | x8 | [G,B,D]8 | x8 | x8 | x8 | x8 | x8 | x8 | x8 | x8 | x8 |!8vb(! x6!8vb)! x2 |] %105
V:5
 x8 | x8 | x8 | x8 || x8 | x8 | x8 | x8 | x8 | x8 | x8 | x8 | x8 | x8 | x8 | x8 | x8 | x8 | x8 | %19
 [G,A,C]8 || x8 | x8 | x8 | x8 | x8 | x8 | x8 | x8 | x8 |[M:23/16] x23/2 |[M:4/4] x8 | x8 | x8 | %33
 x8 | x8 | x8 ||[K:G]!8va(! x4!8va)! x4 | x8 | x8 | x8 | x8 | x8 | x8 | x8 ||[K:F] x8 | x8 | x8 | %47
 x8 | x8 | x8 | x8 | x8 || x8 | x8 | x8 | x8 | x8 | x8 | x8 | x8 | x4!8va(! x4 | x4!8va)! x4 | %62
 x4!8va(! x4 | x2!8va)! x2!8va(! x2!8va)! x2 | x8 | x8 | x8 | x5!8va(! x3 || x5!8va)! x3 | x8 | %70
 x8 | x8 | x8 | x8 | x8 | x8 ||[K:G] x8 | x4!8va(! x4!8va)! | x8 | x8 | x8 | x8 | x8 | x8 || %84
[K:F] x4!8va(! x4 | x7/2!8va)! x9/2 | x8 | x8 | x8 | x8 | x8 | x41/15!8va(! x317/60 | x8!8va)! | %93
 x8 | x8 | x8 | x8 | x8 | x8 | x8 | x8 | x8 | x8 | x8/3!8va(! x4/3!8va)! x4 | x8 |] %105

